X: 16538
T: Halloween
R: reel
M: 4/4
K: Aminor
"Am"a2 aa a2 aa|a2 ac’ ag e2|dc A2 (3dcA G2|A2 eA gA^gA|
"Am"a2 aa a2 aa|a2 ac’ age2|"E"e4"gliss"(g4|e2)eA gA^gA|
"Am"a2 aa a2 aa|a2 ac’ ag e2|dcA2 (3dcA G2|A2 AA c2 d2|
e2 eg edcA|"E7"d_ede dcAG|"Am"A2 cd ^dege|a6 e2||
|:"C"[c4c’4]"Am"[A4a4]|eged cA3|"C"[c4c’4]"Am"[A3a3]e|"Am"d2^d2"E7"e4|
"C"[c4c’4]"Am"[A4a4]|eged cA3|Acd^d eged|"E7"(3dcA G2"Am"A4:|

